16x16/panel/scc-error.svg

<svg height="16" width="16" xmlns="http://www.w3.org/2000/svg"><path d="m4 2c-2.216 0-4 1.811-4 4.06l.008 1.94c-.001.03-.008.059-.008.09 0 .026.007.052.008.078l.021 5.158c-.251 1.505 1.187 2.456 2.395.81l2.129-3.136h6.894l2.13 3.137c1.207 1.645 2.645.694 2.394-.81l.021-5.159c.001-.026.008-.052.008-.078 0-.025-.007-.046-.008-.07l.008-1.96c0-2.248-1.784-4.06-4-4.06zm2 1h.707a1 1 0 0 1 .707.293l.586.586.586-.586a1 1 0 0 1 .707-.293h.707a1 1 0 0 1 1 1v.707a1 1 0 0 1 -.293.707l-.586.586.586.586a1 1 0 0 1 .293.707v.707a1 1 0 0 1 -1 1h-.707a1 1 0 0 1 -.707-.293l-.586-.586-.586.586a1 1 0 0 1 -.707.293h-.707a1 1 0 0 1 -1-1v-.707a1 1 0 0 1 .293-.707l.586-.586-.586-.586a1 1 0 0 1 -.293-.707v-.707a1 1 0 0 1 1-1z" fill="#8b9cbe" opacity=".3"/><path d="m6 4v.707l1.293 1.293-1.293 1.293v.707h.707l1.293-1.293 1.293 1.293h.707v-.707l-1.293-1.293 1.293-1.293v-.707h-.707l-1.293 1.293-1.293-1.293z" fill="#f44336"/></svg>

<svg xmlns="http://www.w3.org/2000/svg" width="16" height="16"><defs><style id="current-color-scheme" type="text/css"></style></defs><path style="opacity:.3;fill:currentColor;color:#8b9cbe" d="M4 2C1.784 2 0 3.811 0 6.06L.008 8C.007 8.03 0 8.059 0 8.09c0 .026.007.052.008.078l.021 5.158c-.251 1.505 1.187 2.456 2.395.81L4.553 11h6.894l2.13 3.137c1.207 1.645 2.645.694 2.394-.81l.021-5.159c.001-.026.008-.052.008-.078 0-.025-.007-.046-.008-.07L16 6.06C16 3.812 14.216 2 12 2zm2 1h.707a1 1 0 0 1 .707.293L8 3.879l.586-.586A1 1 0 0 1 9.293 3H10a1 1 0 0 1 1 1v.707a1 1 0 0 1-.293.707L10.121 6l.586.586a1 1 0 0 1 .293.707V8a1 1 0 0 1-1 1h-.707a1 1 0 0 1-.707-.293L8 8.121l-.586.586A1 1 0 0 1 6.707 9H6a1 1 0 0 1-1-1v-.707a1 1 0 0 1 .293-.707L5.879 6l-.586-.586A1 1 0 0 1 5 4.707V4a1 1 0 0 1 1-1z"/><path style="fill:currentColor;color:#f44336" d="M6 4v.707L7.293 6 6 7.293V8h.707L8 6.707 9.293 8H10v-.707L8.707 6 10 4.707V4h-.707L8 5.293 6.707 4z"/></svg>
